X: 183
T: Nanhuo buguo Renxiangren
L: 1/8
M: 2/4
K: C
d> g d c [I:setbarnb 1]| 
A D G A | 
d3e | 
c B/ A/ G E/ G/ | 
A4 | 
d> g d c | 
A D G A | 
d3e | 
A/ c/ A/ G/ F G/ F/ | 
D4 |]

@@@ Tune index: 9057
